papirus/16x16/mimetypes/text-x-makefile.svg

<?xml version="1.0" encoding="UTF-8" standalone="no"?>
<svg
   xmlns:dc="http://purl.org/dc/elements/1.1/"
   xmlns:cc="http://creativecommons.org/ns#"
   xmlns:rdf="http://www.w3.org/1999/02/22-rdf-syntax-ns#"
   xmlns:svg="http://www.w3.org/2000/svg"
   xmlns="http://www.w3.org/2000/svg"
   viewBox="0 0 16 16"
   version="1.1"
   width="16px"
   height="16px"
   id="svg2">
  <defs
     id="defs10" />
  <metadata
     id="metadata17">
    <rdf:RDF>
      <cc:Work
         rdf:about="">
        <dc:format>image/svg+xml</dc:format>
        <dc:type
           rdf:resource="http://purl.org/dc/dcmitype/StillImage" />
      </cc:Work>
    </rdf:RDF>
  </metadata>
  <path
     style="fill:#cccccc"
     d="M 2.75,1 C 2.3328,1 2,1.3328 2,1.75 l 0,13.5 C 2,15.667 2.3328,16 2.75,16 l 10.5,0 C 13.668,16 14,15.668 14,15.25 L 14,6 9.875,5.125 9,1 Z"
     id="path5" />
  <path
     style="fill:#f8f8f0"
     d="M 9,1 9,5.1666667 C 9,5.6250667 9.3749333,6 9.833333,6 L 14,6 Z"
     id="path7" />
  <path
     style="fill:#ffffff;fill-opacity:0.2"
     d="M 2.75,1 C 2.3328,1 2,1.3328 2,1.75 l 0,0.6 C 2,1.9328 2.3328,1.6 2.75,1.6 L 9,1.6 9,1 Z"
     id="path11" />
  <path
     id="rect4348"
     d="m 7.0000002,6.9999996 0,1.1738279 a 3,3 0 0 0 -0.291015,0.121094 l -0.830079,-0.8300781 -1.414062,1.4140621 0.830078,0.830078 a 3,3 0 0 0 -0.119141,0.291016 l -1.175781,0 0,2.0000005 1.173828,0 a 3,3 0 0 0 0.121094,0.291016 l -0.830078,0.830078 1.414062,1.414062 0.830079,-0.830078 a 3,3 0 0 0 0.291015,0.119141 l 0,1.175781 2,0 0,-1.173828 a 3,3 0 0 0 0.291016,-0.121094 l 0.8300778,0.830078 1.414062,-1.414062 -0.830078,-0.830078 A 3,3 0 0 0 10.824219,12 L 12,12 l 0,-2.0000005 -1.173828,0 A 3,3 0 0 0 10.705078,9.7089835 L 11.535156,8.8789055 10.121094,7.4648434 9.2910162,8.2949215 a 3,3 0 0 0 -0.291016,-0.119141 l 0,-1.1757809 -2,0 z m 1,1.9999999 A 2,2 0 0 1 9.9999998,11 a 2,2 0 0 1 -1.9999996,2 2,2 0 0 1 -2,-2 2,2 0 0 1 2,-2.0000005 z"
     style="opacity:0.5;fill:#000000;fill-opacity:1;stroke:none;stroke-width:2;stroke-linecap:round;stroke-linejoin:round;stroke-miterlimit:4;stroke-dasharray:none;stroke-opacity:1" />
</svg>

<?xml version="1.0" encoding="UTF-8" standalone="no"?>
<svg id="svg2" xmlns:rdf="http://www.w3.org/1999/02/22-rdf-syntax-ns#" xmlns="http://www.w3.org/2000/svg" height="16px" width="16px" version="1.1" xmlns:cc="http://creativecommons.org/ns#" viewBox="0 0 16 16" xmlns:dc="http://purl.org/dc/elements/1.1/">
 <metadata id="metadata17">
  <rdf:RDF>
   <cc:Work rdf:about="">
    <dc:format>image/svg+xml</dc:format>
    <dc:type rdf:resource="http://purl.org/dc/dcmitype/StillImage"/>
   </cc:Work>
  </rdf:RDF>
 </metadata>
 <path id="path5" fill="#ccc" d="m2.75 1c-0.4172 0-0.75 0.3328-0.75 0.75v13.5c0 0.417 0.3328 0.75 0.75 0.75h10.5c0.418 0 0.75-0.332 0.75-0.75v-9.25l-4.125-0.875-0.875-4.125z"/>
 <path id="path7" fill="#f8f8f0" d="m9 1v4.1667c0 0.4584 0.3749 0.8333 0.8333 0.8333h4.1667z"/>
 <path id="path11" fill-opacity=".2" fill="#fff" d="m2.75 1c-0.4172 0-0.75 0.3328-0.75 0.75v0.6c0-0.4172 0.3328-0.75 0.75-0.75h6.25v-0.6z"/>
 <path id="rect4348" opacity=".5" d="m7 7v1.1738a3 3 0 0 0 -0.29102 0.12109l-0.83008-0.83008-1.4141 1.4141 0.83008 0.83008a3 3 0 0 0 -0.11914 0.29102h-1.1758v2h1.1738a3 3 0 0 0 0.12109 0.29102l-0.83008 0.83008 1.4141 1.4141 0.83008-0.83008a3 3 0 0 0 0.29102 0.11914v1.1758h2v-1.1738a3 3 0 0 0 0.29102 -0.12109l0.83008 0.83008 1.4141-1.4141-0.83008-0.83008a3 3 0 0 0 0.119 -0.291h1.176v-2h-1.1738a3 3 0 0 0 -0.121 -0.291l0.83-0.8301-1.414-1.4141-0.83 0.8301a3 3 0 0 0 -0.29102 -0.11914v-1.1758h-2zm1 2a2 2 0 0 1 2 2 2 2 0 0 1 -2 2 2 2 0 0 1 -2 -2 2 2 0 0 1 2 -2z"/>
</svg>
